packages/core/src/svgs/tokens/branded/XTZ.svg

<svg width="24" height="24" viewBox="0 0 24 24" fill="none" xmlns="http://www.w3.org/2000/svg">
<path d="M14.2666 21.9892C12.8071 21.9892 11.7477 21.6496 11.0679 20.9598C10.4087 20.27 10.0686 19.5308 10.0686 18.741C10.0686 18.4408 10.1386 18.2013 10.2481 18.0013C10.3629 17.8046 10.5289 17.6422 10.7284 17.5316C10.9285 17.4215 11.178 17.362 11.4675 17.362C11.7577 17.362 12.0172 17.4215 12.2173 17.5316C12.4287 17.6489 12.602 17.8241 12.7172 18.0366C12.8323 18.249 12.8843 18.49 12.8671 18.731C12.8671 19.0907 12.7871 19.3708 12.6169 19.6003C12.4641 19.8042 12.2507 19.9546 12.0072 20.03C12.2074 20.3101 12.527 20.5002 12.9666 20.6202C13.3963 20.7397 13.8364 20.7997 14.2661 20.7997C14.8479 20.8063 15.4185 20.6393 15.9052 20.32C16.4055 20.0005 16.755 19.5208 16.9846 18.9012C17.2246 18.2714 17.3341 17.5615 17.3341 16.7723C17.3341 15.9025 17.2146 15.1728 16.9545 14.5636C16.7503 13.9951 16.3637 13.51 15.8551 13.184C15.3743 12.8896 14.8199 12.7371 14.256 12.7444C13.8965 12.7444 13.4262 12.8945 12.8671 13.194L11.8478 13.6943V13.194L16.4442 7.28627H10.3116V13.4242C10.3116 14.7855 11.357 15.7331 12.5669 14.8432C12.9087 14.5949 13.2062 14.2909 13.4468 13.9438C13.473 13.887 13.5144 13.8385 13.5663 13.8038C13.6079 13.767 13.6609 13.7458 13.7164 13.7437C13.8064 13.7437 13.9064 13.7937 14.0166 13.8732C14.1237 13.9874 14.1842 14.1369 14.186 14.2935C14.172 14.4011 14.152 14.5081 14.126 14.6136C13.8946 15.1528 13.513 15.6141 13.0266 15.9425C11.8614 16.7177 9.74489 16.5975 8.74969 15.6029C8.47962 15.3106 8.2707 14.9673 8.13516 14.5932C7.99963 14.219 7.94024 13.8216 7.96045 13.4242V7.28627H4.42627V6.10918H7.96045V3.16649L7.36897 2.57795V2H9.37947L10.3116 3.16649V6.10918H18.5041L19.3434 6.79777L14.176 11.8752C14.4868 11.7527 14.8133 11.6752 15.1459 11.645C15.7051 11.645 16.3448 11.825 17.0446 12.1747C17.7444 12.5143 18.2841 12.9939 18.6637 13.5936C19.0432 14.1939 19.2934 14.7631 19.3934 15.3128C19.5041 15.7954 19.5641 16.2874 19.5736 16.7824C19.5796 17.7254 19.3639 18.6566 18.9438 19.5009C18.5423 20.3244 17.8725 20.9869 17.0446 21.3795C16.1781 21.7956 15.2278 22.0077 14.2666 21.9998V21.9892Z" fill="#2E84FD"/>
</svg>

<svg xmlns="http://www.w3.org/2000/svg" width="24" height="24" fill="none" viewBox="0 0 24 24">
    <path fill="#2E84FD" d="M14.267 21.99c-1.46 0-2.52-.34-3.2-1.03-.658-.69-.998-1.43-.998-2.219 0-.3.07-.54.18-.74.114-.196.28-.359.48-.47s.449-.169.739-.169.55.06.75.17a1.27 1.27 0 0 1 .65 1.199c0 .36-.08.64-.251.87a1.2 1.2 0 0 1-.61.429c.2.28.52.47.96.59.43.12.87.18 1.3.18a2.93 2.93 0 0 0 1.638-.48c.5-.32.85-.8 1.08-1.419.24-.63.35-1.34.35-2.129 0-.87-.12-1.6-.38-2.208a2.74 2.74 0 0 0-1.1-1.38 3 3 0 0 0-1.599-.44c-.36 0-.83.15-1.389.45l-1.02.5v-.5l4.597-5.908h-6.132v6.138c0 1.362 1.045 2.31 2.255 1.42.342-.25.64-.553.88-.9a.34.34 0 0 1 .12-.14.24.24 0 0 1 .15-.06c.09 0 .19.05.3.13a.62.62 0 0 1 .169.42 3 3 0 0 1-.06.32c-.231.539-.613 1-1.1 1.329-1.165.775-3.281.655-4.276-.34a3 3 0 0 1-.79-2.179V7.286H4.426V6.11H7.96V3.166l-.591-.588V2h2.01l.933 1.166V6.11h8.192l.84.689-5.168 5.077c.31-.122.637-.2.97-.23.56 0 1.199.18 1.899.53.7.34 1.24.819 1.619 1.419.38.6.63 1.17.73 1.719q.165.725.18 1.47a6 6 0 0 1-.63 2.718 4.04 4.04 0 0 1-1.9 1.878 6.3 6.3 0 0 1-2.777.62z"/>
</svg>
